svg/ratio.svg

<?xml version="1.0" encoding="UTF-8"?>
<svg xmlns="http://www.w3.org/2000/svg" xmlns:xlink="http://www.w3.org/1999/xlink" width="32" height="32" viewBox="0 0 32 32">
<path fill-rule="nonzero" fill="rgb(0%, 0%, 0%)" fill-opacity="1" d="M 5.761719 2.558594 C 3.992188 2.558594 2.558594 3.992188 2.558594 5.761719 L 2.558594 26.238281 C 2.558594 28.007812 3.992188 29.441406 5.761719 29.441406 L 26.238281 29.441406 C 28.007812 29.441406 29.441406 28.007812 29.441406 26.238281 L 29.441406 5.761719 C 29.441406 3.992188 28.007812 2.558594 26.238281 2.558594 Z M 10.558594 6.976562 C 11.710938 6.976562 12.542969 7.421875 13.183594 8.382812 C 13.824219 9.34375 14.078125 10.6875 14.078125 12.417969 C 14.078125 14.207031 13.757812 15.550781 13.183594 16.449219 C 12.609375 17.34375 11.710938 17.792969 10.558594 17.792969 C 9.472656 17.792969 8.640625 17.34375 8 16.382812 C 7.425781 15.421875 7.105469 14.144531 7.105469 12.351562 C 7.105469 10.558594 7.425781 9.214844 8 8.320312 C 8.574219 7.425781 9.472656 6.976562 10.558594 6.976562 M 20.03125 7.039062 L 21.761719 7.039062 L 11.96875 24.960938 L 10.238281 24.960938 Z M 10.558594 8.511719 C 9.921875 8.511719 9.472656 8.832031 9.152344 9.472656 C 8.898438 10.046875 8.703125 11.070312 8.703125 12.417969 C 8.703125 13.761719 8.832031 14.71875 9.152344 15.421875 C 9.472656 16.0625 9.921875 16.449219 10.558594 16.449219 C 11.839844 16.449219 12.480469 15.105469 12.480469 12.480469 C 12.480469 9.855469 11.839844 8.511719 10.558594 8.511719 M 21.441406 14.207031 C 22.527344 14.207031 23.425781 14.65625 24 15.550781 C 24.640625 16.511719 24.960938 17.855469 24.960938 19.582031 C 24.960938 21.375 24.640625 22.71875 24.0625 23.617188 C 23.488281 24.511719 22.59375 24.960938 21.441406 24.960938 C 20.351562 24.960938 19.457031 24.511719 18.878906 23.550781 C 18.304688 22.65625 17.984375 21.3125 17.984375 19.582031 C 17.984375 17.792969 18.304688 16.449219 18.878906 15.550781 C 19.457031 14.65625 20.351562 14.207031 21.441406 14.207031 M 21.441406 15.679688 C 20.734375 15.679688 20.289062 16 20.03125 16.640625 C 19.710938 17.28125 19.582031 18.238281 19.582031 19.582031 C 19.582031 20.929688 19.710938 21.886719 20.03125 22.59375 C 20.351562 23.234375 20.800781 23.550781 21.441406 23.550781 C 22.078125 23.550781 22.59375 23.234375 22.914062 22.59375 C 23.234375 21.953125 23.359375 20.929688 23.359375 19.582031 C 23.359375 18.238281 23.234375 17.28125 22.914062 16.640625 C 22.59375 16 22.144531 15.679688 21.441406 15.679688 M 21.441406 15.679688 "/>
</svg>

<svg role="img" viewBox="0 0 32 32" height="32" width="32" xmlns="http://www.w3.org/2000/svg"><path d="M5.762 2.559a3.202 3.202 0 0 0-3.203 3.203v20.476a3.202 3.202 0 0 0 3.203 3.203h20.476a3.202 3.202 0 0 0 3.203-3.203V5.762a3.202 3.202 0 0 0-3.203-3.203Zm4.797 4.418c1.152 0 1.984.445 2.625 1.406.64.96.894 2.305.894 4.035 0 1.789-.32 3.133-.894 4.031-.575.895-1.473 1.344-2.625 1.344-1.086 0-1.918-.45-2.559-1.41-.574-.961-.895-2.238-.895-4.031 0-1.793.32-3.137.895-4.032.574-.894 1.473-1.343 2.559-1.343m9.472.062h1.73L11.97 24.961h-1.73ZM10.56 8.512c-.637 0-1.086.32-1.407.96-.254.575-.449 1.598-.449 2.946 0 1.344.129 2.3.45 3.004.32.64.769 1.027 1.406 1.027 1.28 0 1.921-1.344 1.921-3.969s-.64-3.968-1.921-3.968m10.882 5.695c1.086 0 1.985.45 2.559 1.344.64.96.96 2.304.96 4.031 0 1.793-.32 3.137-.898 4.035-.574.895-1.468 1.344-2.62 1.344-1.09 0-1.985-.45-2.563-1.41-.574-.895-.895-2.238-.895-3.969 0-1.789.32-3.133.895-4.031.578-.895 1.473-1.344 2.562-1.344m0 1.473c-.707 0-1.152.32-1.41.96-.32.641-.449 1.598-.449 2.942 0 1.348.129 2.305.45 3.012.32.64.769.957 1.41.957.636 0 1.152-.317 1.472-.957.32-.64.445-1.664.445-3.012 0-1.344-.125-2.3-.445-2.941s-.77-.961-1.473-.961m0 0"/></svg>
